X:635
T:
S:Från Gotlands fornsal.
R:kadrilj
O:Gotland
M:2/4
L:1/16
K:Eb
B,2|E2ED E2G2|B6eB|G2BG F2AF|EDEF G2B,2|
E2ED E2G2|B6eB|G2BG F2AF|1 E2E2E2:|2 E2E2E2 z2
|:B2B2 g3e|B2B2 e3B|G2G2 FEFG|EDEF G2B,2|
B2B2 g3e|B2B2 e3B|G2G2 FEFG|E4 z4:|
|:F2F2 B3A|G2G2 B3A|A2A2 G2G2|F2F2F2 z2|
B2B2 g3e|B2B2 e3B|G2G2 FEFG|E4 z4:|
|:e2e2 g3e|G2G2 B3G|E2EE G2Be|geBG E4|
e2e2 g3B|G2G2 B3G|E2E2 GFDF|[G,E]4 z4:|

